!!!!SEGMENT: Ric3007-Je_fus_lautrier.krn
!!!id: Ric3007
!!!AGN: Chanson
!!!voices: 3
!!!COM: Jean Richafort
!!!OTL: Je fus l'autrier
**kern	**kern	**kern
*part3	*part2	*part1
*staff3	*staff2	*staff1
*I"Bassus	*I"Tenor	*I"Superius
*I'B	*I'T	*I'S
*clefF4	*clefGv2	*clefGv2
*k[b-]	*k[b-]	*k[b-]
*F:	*F:	*F:
*M3/1	*M3/1	*M3/1
*met(O|)	*met(O|)	*met(O|)
=1	=1	=1
1A	0r	1r
2.A	.	1A
4B-y	.	.
2c	1A	2.A
2B-y	.	.
.	.	4B-y
=2	=2	=2
2A	1.A	2c
2G	.	2B-y
1F	.	2A
.	2c	2A
2r	2B-y	2G
2F	2A	[2c
=3	=3	=3
2.E	1.G	4c]
.	.	4B-y
.	.	4A
4D	.	4B-y
2C	.	2.c
1c	2F	.
.	.	4d
.	2E	2e
[2d	2D	2f
=4	=4	=4
2d]	1G	2.e
1c	.	.
.	.	8dL
.	.	8cJ
.	2r	1d
2BnXi	2G	.
1c	4A	2r
.	4G	.
.	4A	2c
.	4B-y	.
=5	=5	=5
2r	1.c	4c
.	.	4d
2C	.	4e
.	.	4f
4C	.	2g
4D	.	.
4E	2c	4G
4F	.	4A
2G	4B-y	4B-y
.	4A	4c
2G	4B-y	4d
.	4c	4e
=6	=6	=6
2.F	4A	4f
.	4B-y	4g
.	4c	4a
8EL	4A	4f
8FJ	.	.
2E	4B-y	2g
.	4A	.
2F	4G	2.f
.	4F	.
1C	2G	.
.	.	8eL
.	.	8dJ
.	2G	2e
=7	=7	=7
2r	0F	0f
2c	.	.
4c	.	.
4B-y	.	.
4A	.	.
4G	.	.
2.F	1c	2r
.	.	2f
4E	.	.
=8	=8	=8
4D	1.d	4f
4C	.	4e
1BB-y	.	4d
.	.	4c
.	.	4B-y
.	.	4A
2C	2c	1G
1D	2c	.
.	2BnXi	2F
=9	=9	=9
2C	0c	2G
2C	.	1A
1.F	.	.
.	.	4G
.	.	4F
.	1c	1G
2E	.	.
=10	=10	=10
1.D	1.f	2r
.	.	2F
.	.	4F
.	.	4G
4C	4e	4A
4BB-y	4d	4B-y
2AA	4e	2c
.	4d	.
2A	4e	2c
.	4f	.
=11	=11	=11
4G	1g	2d
4F	.	.
4E	.	1e
4D	.	.
2C	1g	.
2.c	.	4d
.	.	4c
.	1f	1d
4BnXi	.	.
4Bni	.	.
8AL	.	.
8BniJ	.	.
=12	=12	=12
2c	2e	2c
2.B-y	2.f	2.d
4c	4e	4c
2A	4d	1c
.	4c	.
2.G	1d	.
.	.	2BnXi
4F	.	.
=13	=13	=13
4E	0c	1c
4D	.	.
1F	.	.
.	.	2r
4E	.	2f
4D	.	.
1C	1r	2f
.	.	2e
=14	=14	=14
2r	1f	2.d
2D	.	.
.	.	4c
4D	1f	2B-y
4C	.	.
4BB-y	.	1A
4AA	.	.
2BB-y	1d	.
2BB-y	.	2G
=15	=15	=15
2AA	2c	0A
4D	2d	.
4E	.	.
4F	2c	.
4G	.	.
2.A	4B-y	.
.	4A	.
.	1B-y	2.d
4G	.	.
[2G	.	.
.	.	4e
=16	=16	=16
2G]	1A	4f
.	.	4g
2F#i	.	2.a
1G	1r	.
.	.	4g
.	.	1g
1D	1d	.
.	.	2f#i
=17	=17	=17
1.B-y	1d	2g
.	.	1G
.	0c	.
2A	.	2F
2B-y	.	2G
4A	.	[2d
4G	.	.
=18	=18	=18
4F	1A	2d]
4G	.	.
1A	.	2c
.	0d	4d
.	.	4c
4G	.	4B-y
4F	.	4A
1G	.	1B-y
=19	=19	=19
1.A	2c	2A
.	2A	2.c
.	2c	.
.	.	4B-y
2F	2d	1A
1G	1B-y	.
.	.	2G
=20	=20	=20
2r	0A	1A
2D	.	.
2F	.	2r
2F	.	1A
4E	1B-y	.
4F	.	.
4G	.	2G
4E	.	.
=21	=21	=21
4F	4A	2A
4E	4B-y	.
4D	4c	1G
4C	4A	.
1D	4B-y	.
.	4A	.
.	4G	1F
.	4F	.
1C	2G	.
.	2G	2E
=22	=22	=22
2r	0F	1F
2F	.	.
4F	.	2r
4G	.	.
4A	.	2F
4B-y	.	.
1c	1A	4F
.	.	4E
.	.	4F
.	.	4G
=23	=23	=23
2r	0c	4A
.	.	4B-y
2C	.	4c
.	.	4d
4C	.	4e
4D	.	4f
4E	.	2.g
4F	.	.
2G	1B-y	.
.	.	4f
2E	.	8gL
.	.	8f
.	.	8e
.	.	8dJ
=24	=24	=24
2F	2A	2c
2BB-y	2B-y	2.d
1D	2A	.
.	.	4c
.	4G	1f
.	4F	.
1C	2G	.
.	2G	2e
=25	=25	=25
2r	0F	1f
2F	.	.
4F	.	2r
4G	.	.
4A	.	2F
4B-y	.	.
2.c	1A	4F
.	.	4G
.	.	4A
4B-y	.	4B-y
=26	=26	=26
2A	1.A	2.c
2G	.	.
.	.	4B-y
1F	.	2A
.	2c	2A
2r	2B-y	2G
2F	2A	[2c
=27	=27	=27
2.E	1.G	4c]
.	.	4BnXi
.	.	4Bni
4D	.	4A
2C	.	2.c
1c	2F	.
.	.	4d
.	2E	2e
[2d	2D	2f
=28	=28	=28
2d]	1G	2.e
1c	.	.
.	.	8dL
.	.	8cJ
.	2r	1d
2BnXi	2G	.
1c	4A	2r
.	4G	.
.	4A	2c
.	4B-y	.
=29	=29	=29
2r	1.c	4c
.	.	4d
2C	.	4e
.	.	4f
4C	.	2g
4D	.	.
4E	2c	4G
4F	.	4A
1G	4B-y	4B-y
.	4A	4c
.	4B-y	4d
.	4c	4e
=30	=30	=30
2.F	4A	4f
.	4B-y	4g
.	4c	4a
8EL	4A	4f
8FJ	.	.
2E	4B-y	2g
.	4A	.
2F	4G	2.f
.	4F	.
1C	1G	.
.	.	4e
.	.	4e
.	.	8dL
.	.	8eJ
=31	=31	=31
00Fl	00Fl	00fl
==	==	==
*-	*-	*-
!!!system-decoration: [*]
!!!RDF**kern: i = editorial accidental
!!!RDF**kern: l = terminal long
!!!ENC: Benjamin Ory
!!!END: 2024/11/25
!!!EED: Benjamin Ory
!!!EEV: 2024/11/25
!!!YEC: Copyright 2024 Benjamin Ory, All Rights Reserved
!!!ONB: Translated from MusicXML on 2024/11/25
